assets/icons/network/cellular/_.svg

<?xml version="1.0" encoding="UTF-8" standalone="no"?>
<svg viewBox="0 0 24 24" height="24" width="24" version="1.1" id="svg10" sodipodi:docname="_.svg" inkscape:version="1.1.1 (eb90963e84, 2021-10-02)"
   xmlns:inkscape="http://www.inkscape.org/namespaces/inkscape"
   xmlns:sodipodi="http://sodipodi.sourceforge.net/DTD/sodipodi-0.dtd"
   xmlns="http://www.w3.org/2000/svg"
   xmlns:svg="http://www.w3.org/2000/svg"
   xmlns:rdf="http://www.w3.org/1999/02/22-rdf-syntax-ns#"
   xmlns:cc="http://creativecommons.org/ns#"
   xmlns:dc="http://purl.org/dc/elements/1.1/">
   <metadata id="metadata16">
      <rdf:RDF>
         <cc:Work rdf:about="">
            <dc:format>image/svg+xml</dc:format>
            <dc:type rdf:resource="http://purl.org/dc/dcmitype/StillImage" />
         </cc:Work>
      </rdf:RDF>
   </metadata>
   <defs id="defs14" />
   <sodipodi:namedview pagecolor="#ffffff" bordercolor="#666666" borderopacity="1" objecttolerance="10" gridtolerance="10" guidetolerance="10" inkscape:pageopacity="0" inkscape:pageshadow="2" inkscape:window-width="1920" inkscape:window-height="1043" id="namedview12" showgrid="true" inkscape:zoom="10.783378" inkscape:cx="6.0741632" inkscape:cy="2.5965888" inkscape:window-x="1920" inkscape:window-y="0" inkscape:window-maximized="1" inkscape:current-layer="svg10" inkscape:document-rotation="0" inkscape:pagecheckerboard="0">
      <inkscape:grid type="xygrid" id="grid18" />
   </sodipodi:namedview>
   <path id="path905" style="fill:#808080;fill-rule:evenodd;stroke:none;stroke-width:2;stroke-linecap:round;stroke-linejoin:round" d="M 10.822266 2.0234375 A 9.5 9.5 0 0 0 4.7832031 4.7832031 A 9.5 9.5 0 0 0 4.7832031 18.216797 L 5.4902344 17.509766 A 8.5 8.5 0 0 1 5.4902344 5.4902344 A 8.5 8.5 0 0 1 17.509766 5.4902344 A 8.5 8.5 0 0 1 17.509766 17.509766 L 18.216797 18.216797 A 9.5 9.5 0 0 0 18.216797 4.7832031 A 9.5 9.5 0 0 0 10.822266 2.0234375 z M 11.5 6 A 5.5 5.5 0 0 0 6.4179688 9.3945312 A 5.5 5.5 0 0 0 7.6113281 15.388672 L 8.3183594 14.681641 A 4.5 4.5 0 0 1 7.3417969 9.7773438 A 4.5 4.5 0 0 1 11.5 7 A 4.5 4.5 0 0 1 15.658203 9.7773438 A 4.5 4.5 0 0 1 14.681641 14.681641 L 15.388672 15.388672 A 5.5 5.5 0 0 0 16.582031 9.3945312 A 5.5 5.5 0 0 0 11.5 6 z M 11.5 10 A 1.5 1.5 0 0 0 10 11.5 A 1.5 1.5 0 0 0 11 12.910156 L 11 22 L 12 22 L 12 12.910156 A 1.5 1.5 0 0 0 13 11.5 A 1.5 1.5 0 0 0 11.5 10 z " />
</svg>

<svg height="24" width="24" xmlns="http://www.w3.org/2000/svg"><path style="fill:gray;stroke:none;stroke-width:2;stroke-linecap:round;stroke-linejoin:round" d="M10.822 2.023a9.5 9.5 0 0 0-6.039 2.76 9.5 9.5 0 0 0 0 13.434l.707-.707a8.5 8.5 0 0 1 0-12.02 8.5 8.5 0 0 1 12.02 0 8.5 8.5 0 0 1 0 12.02l.707.707a9.5 9.5 0 0 0 0-13.434 9.5 9.5 0 0 0-7.395-2.76zM11.5 6a5.5 5.5 0 0 0-5.082 3.395 5.5 5.5 0 0 0 1.193 5.994l.707-.707a4.5 4.5 0 0 1-.976-4.905A4.5 4.5 0 0 1 11.5 7a4.5 4.5 0 0 1 4.158 2.777 4.5 4.5 0 0 1-.976 4.905l.707.707a5.5 5.5 0 0 0 1.193-5.994A5.5 5.5 0 0 0 11.5 6zm0 4a1.5 1.5 0 0 0-1.5 1.5 1.5 1.5 0 0 0 1 1.41V22h1v-9.09a1.5 1.5 0 0 0 1-1.41 1.5 1.5 0 0 0-1.5-1.5z"/></svg>
